svgs/duotone/car-building.svg

<svg xmlns="http://www.w3.org/2000/svg" viewBox="0 0 640 512"><!--! Font Awesome Pro 6.4.2 by @fontawesome - https://fontawesome.com License - https://fontawesome.com/license (Commercial License) Copyright 2023 Fonticons, Inc. --><path class="fa-primary" style="fill:var(--fa-primary-color,inherit);opacity:var(--fa-primary-opacity,1);" d="M347.4 234.9L329.7 288H534.3l-17.7-53.1c-2.2-6.5-8.3-10.9-15.2-10.9H362.6c-6.9 0-13 4.4-15.2 10.9zm-87.3 59.4l26.6-79.7C297.6 182 328.2 160 362.6 160H501.4c34.4 0 65 22 75.9 54.7l26.6 79.7C625.2 304.7 640 326.6 640 352v96h0v32c0 17.7-14.3 32-32 32H592c-17.7 0-32-14.3-32-32V448H304v32c0 17.7-14.3 32-32 32H256c-17.7 0-32-14.3-32-32V448h0V352c0-25.4 14.8-47.3 36.1-57.6zM328 368a24 24 0 1 0 -48 0 24 24 0 1 0 48 0zm232 24a24 24 0 1 0 0-48 24 24 0 1 0 0 48z"/><path class="fa-secondary" style="fill:var(--fa-secondary-color,inherit);opacity:var(--fa-secondary-opacity,.4);" d="M0 48C0 21.5 21.5 0 48 0H272c26.5 0 48 21.5 48 48v88.4c-29.5 12.1-53.1 36.6-63.7 68.2l-.5 1.4c-1-7.9-7.7-14-15.9-14H208c-8.8 0-16 7.2-16 16v32c0 8.8 7.2 16 16 16h31.2l-5.6 16.9C208.5 290.2 192 319.2 192 352v96 32H48c-26.5 0-48-21.5-48-48V48zM64 208v32c0 8.8 7.2 16 16 16h32c8.8 0 16-7.2 16-16V208c0-8.8-7.2-16-16-16H80c-8.8 0-16 7.2-16 16zm0-96v32c0 8.8 7.2 16 16 16h32c8.8 0 16-7.2 16-16V112c0-8.8-7.2-16-16-16H80c-8.8 0-16 7.2-16 16zM208 96c-8.8 0-16 7.2-16 16v32c0 8.8 7.2 16 16 16h32c8.8 0 16-7.2 16-16V112c0-8.8-7.2-16-16-16H208zM64 304v32c0 8.8 7.2 16 16 16h32c8.8 0 16-7.2 16-16V304c0-8.8-7.2-16-16-16H80c-8.8 0-16 7.2-16 16z"/></svg>

<svg xmlns="http://www.w3.org/2000/svg" viewBox="0 0 640 512"><!--! Font Awesome Pro 6.1.1 by @fontawesome - https://fontawesome.com License - https://fontawesome.com/license (Commercial License) Copyright 2022 Fonticons, Inc. --><defs><style>.fa-secondary{opacity:.4}</style></defs><path class="fa-primary" d="M260.1 294.4L286.7 214.7C297.6 182 328.2 160 362.6 160H501.4C535.8 160 566.4 182 577.3 214.7L603.9 294.4C625.2 304.7 640 326.6 640 352L640 480C640 497.7 625.7 512 608 512H592C574.3 512 560 497.7 560 480V448H304V480C304 497.7 289.7 512 272 512H256C238.3 512 224 497.7 224 480L224 352C224 326.6 238.8 304.7 260.1 294.4V294.4zM329.7 288H534.3L516.6 234.9C514.4 228.4 508.3 224 501.4 224H362.6C355.7 224 349.6 228.4 347.4 234.9L329.7 288zM304 344C290.7 344 280 354.7 280 368C280 381.3 290.7 392 304 392C317.3 392 328 381.3 328 368C328 354.7 317.3 344 304 344zM560 392C573.3 392 584 381.3 584 368C584 354.7 573.3 344 560 344C546.7 344 536 354.7 536 368C536 381.3 546.7 392 560 392z"/><path class="fa-secondary" d="M0 48C0 21.49 21.49 0 48 0H272C298.5 0 320 21.49 320 48V136.4C290.5 148.5 266.9 173 256.3 204.6L255.9 205.1C254.9 198.1 248.2 192 240 192H208C199.2 192 192 199.2 192 208V240C192 248.8 199.2 256 208 256H239.2L233.6 272.9C208.5 290.2 192 319.2 192 352V480H48C21.49 480 0 458.5 0 432V48zM64 240C64 248.8 71.16 256 80 256H112C120.8 256 128 248.8 128 240V208C128 199.2 120.8 192 112 192H80C71.16 192 64 199.2 64 208V240zM64 144C64 152.8 71.16 160 80 160H112C120.8 160 128 152.8 128 144V112C128 103.2 120.8 96 112 96H80C71.16 96 64 103.2 64 112V144zM208 96C199.2 96 192 103.2 192 112V144C192 152.8 199.2 160 208 160H240C248.8 160 256 152.8 256 144V112C256 103.2 248.8 96 240 96H208zM64 336C64 344.8 71.16 352 80 352H112C120.8 352 128 344.8 128 336V304C128 295.2 120.8 288 112 288H80C71.16 288 64 295.2 64 304V336z"/></svg>
